;FLAVOR:Marlin
;TIME:899
;Filament used: 0.906442m
;Layer height: 0.2
;MINX:89.111
;MINY:93.609
;MINZ:0.2
;MAXX:120.889
;MAXY:116.392
;MAXZ:20
;Generated with Cura_SteamEngine 4.6.1
M140 S60
M105
M190 S60
M104 S200
M105
M109 S200
M82 ;absolute extrusion mode
G21 ;metric values
G90 ;absolute positioning
M82 ;set extruder to absolute mode
M107 ;start with the fan off
G28 X0 Y0 ;move X/Y to min endstops
G28 Z0 ;move Z to min endstops
G1 Z15.0 F100 ;move the platform down 15mm
G92 E0 ;zero the extruded length
G1 F200 E3 ;extrude 3mm of feed stock
G92 E0 ;zero the extruded length again
G1 F100
G0 Y20 F100
M117 Printing...
G5
G92 E0
G92 E0
G1 F2400 E-6
;LAYER_COUNT:100
;LAYER:0
M106 S255
M204 S3000
M205 X10 Y10
G1 F600 Z0.275
G0 F3000 X114.559 Y94.74 Z0.275
M204 S1800
M205 X8 Y8
;TYPE:SKIRT
G1 F600 Z0.2
G1 F2400 E0
G1 X115.207 Y94.789 E0.03026
G1 X115.844 Y94.917 E0.06051
G1 X116.46 Y95.123 E0.09076
G1 X117.046 Y95.402 E0.12098
G1 X117.594 Y95.752 E0.15126
G1 X118.094 Y96.166 E0.18149
G1 X118.54 Y96.639 E0.21176
G1 X118.924 Y97.162 E0.24197
G1 X119.242 Y97.729 E0.27224
G1 X119.487 Y98.331 E0.3025
G1 X119.656 Y98.958 E0.33274
G1 X119.747 Y99.601 E0.36298
G1 X119.764 Y100.016 E0.38232
G1 X119.769 Y109.26 E0.81276
G1 X119.76 Y110.028 E0.84852
G1 X119.711 Y110.676 E0.87878
G1 X119.584 Y111.313 E0.90903
G1 X119.379 Y111.929 E0.93926
G1 X119.1 Y112.516 E0.96952
G1 X118.751 Y113.064 E0.99978
G1 X118.338 Y113.565 E1.03001
G1 X117.866 Y114.012 E1.06028
G1 X117.343 Y114.397 E1.09052
G1 X116.776 Y114.715 E1.12079
G1 X116.175 Y114.961 E1.15103
G1 X115.548 Y115.131 E1.18128
G1 X114.99 Y115.215 E1.20755
G1 X114.15 Y115.272 E1.24676
G1 X96.216 Y115.271 E2.08184
G1 X95.453 Y115.262 E2.11737
G1 X94.805 Y115.213 E2.14763
G1 X94.168 Y115.086 E2.17788
G1 X93.551 Y114.881 E2.20815
G1 X92.965 Y114.602 E2.23837
G1 X92.417 Y114.253 E2.26862
G1 X91.916 Y113.84 E2.29886
G1 X91.469 Y113.368 E2.32913
G1 X91.084 Y112.844 E2.35941
G1 X90.766 Y112.278 E2.38964
G1 X90.52 Y111.677 E2.41987
G1 X90.35 Y111.05 E2.45012
G1 X90.243 Y110.14 E2.49279
G1 X90.231 Y100.695 E2.93259
G1 X90.242 Y99.941 E2.9677
G1 X90.291 Y99.293 E2.99796
G1 X90.42 Y98.656 E3.02822
G1 X90.626 Y98.04 E3.05847
G1 X90.906 Y97.454 E3.08871
G1 X91.256 Y96.907 E3.11895
G1 X91.67 Y96.407 E3.14918
G1 X92.143 Y95.961 E3.17945
G1 X92.667 Y95.577 E3.2097
G1 X93.234 Y95.26 E3.23995
G1 X93.836 Y95.015 E3.27021
G1 X94.463 Y94.846 E3.30045
G1 X95.373 Y94.741 E3.3431
G1 X113.781 Y94.729 E4.20026
G1 X114.559 Y94.74 E4.23649
M204 S3000
M205 X10 Y10
G0 F3000 X114.567 Y94.18
M204 S1800
M205 X8 Y8
G1 F2400 X115.248 Y94.229 E4.26828
G1 X115.919 Y94.358 E4.3001
G1 X116.571 Y94.565 E4.33195
G1 X117.194 Y94.846 E4.36377
G1 X117.779 Y95.197 E4.39554
G1 X118.32 Y95.615 E4.42738
G1 X118.808 Y96.093 E4.45918
G1 X119.237 Y96.625 E4.49101
G1 X119.601 Y97.204 E4.52285
G1 X119.894 Y97.82 E4.55462
G1 X120.114 Y98.467 E4.58644
G1 X120.257 Y99.135 E4.61825
G1 X120.324 Y100.016 E4.65939
G1 X120.329 Y109.26 E5.08983
G1 X120.32 Y110.035 E5.12592
G1 X120.271 Y110.717 E5.15775
G1 X120.143 Y111.388 E5.18956
G1 X119.937 Y112.04 E5.2214
G1 X119.657 Y112.663 E5.25321
G1 X119.306 Y113.249 E5.28501
G1 X118.889 Y113.79 E5.31682
G1 X118.411 Y114.279 E5.34866
G1 X117.88 Y114.708 E5.38045
G1 X117.302 Y115.073 E5.41228
G1 X116.686 Y115.367 E5.44406
G1 X116.039 Y115.588 E5.4759
G1 X115.044 Y115.773 E5.52302
G1 X114.15 Y115.832 E5.56474
G1 X96.216 Y115.831 E6.39982
G1 X95.445 Y115.822 E6.43573
G1 X94.764 Y115.773 E6.46752
G1 X94.093 Y115.645 E6.49933
G1 X93.441 Y115.439 E6.53117
G1 X92.818 Y115.159 E6.56297
G1 X92.232 Y114.808 E6.59478
G1 X91.691 Y114.391 E6.62659
G1 X91.202 Y113.913 E6.65843
G1 X90.773 Y113.382 E6.69021
G1 X90.408 Y112.804 E6.72204
G1 X90.113 Y112.188 E6.75385
G1 X89.893 Y111.541 E6.78567
G1 X89.749 Y110.873 E6.81749
G1 X89.684 Y110.157 E6.85097
G1 X89.671 Y109.648 E6.87467
G1 X89.671 Y100.695 E7.29156
G1 X89.682 Y99.933 E7.32705
G1 X89.732 Y99.251 E7.35889
G1 X89.861 Y98.58 E7.39071
G1 X90.068 Y97.929 E7.42252
G1 X90.349 Y97.307 E7.4543
G1 X90.701 Y96.721 E7.48613
G1 X91.119 Y96.181 E7.51793
G1 X91.598 Y95.693 E7.54977
G1 X92.13 Y95.264 E7.58159
G1 X92.708 Y94.901 E7.61337
G1 X93.325 Y94.607 E7.6452
G1 X93.972 Y94.388 E7.677
G1 X94.641 Y94.246 E7.70885
G1 X95.357 Y94.181 E7.74233
G1 X113.781 Y94.169 E8.60022
G1 X114.567 Y94.18 E8.63683
M204 S3000
M205 X10 Y10
G0 F3000 X114.575 Y93.62
M204 S1800
M205 X8 Y8
G1 F2400 X115.289 Y93.67 E8.67016
G1 X115.992 Y93.799 E8.70344
G1 X116.677 Y94.006 E8.73676
G1 X117.334 Y94.289 E8.77007
G1 X117.955 Y94.642 E8.80333
G1 X118.534 Y95.063 E8.83666
G1 X119.061 Y95.546 E8.86995
G1 X119.532 Y96.085 E8.90328
G1 X119.939 Y96.673 E8.93658
G1 X120.279 Y97.302 E8.96987
G1 X120.546 Y97.966 E9.0032
G1 X120.737 Y98.655 E9.03649
G1 X120.85 Y99.361 E9.06978
G1 X120.884 Y100.016 E9.10032
G1 X120.889 Y109.26 E9.53076
G1 X120.879 Y110.043 E9.56723
G1 X120.83 Y110.756 E9.60051
G1 X120.702 Y111.46 E9.63382
G1 X120.496 Y112.145 E9.66713
G1 X120.214 Y112.802 E9.70042
G1 X119.861 Y113.424 E9.73373
G1 X119.441 Y114.003 E9.76703
G1 X118.959 Y114.532 E9.80036
G1 X118.421 Y115.003 E9.83365
G1 X117.834 Y115.411 E9.86694
G1 X117.204 Y115.751 E9.90027
G1 X116.541 Y116.019 E9.93357
G1 X115.852 Y116.211 E9.96688
G1 X115.098 Y116.33 E10.00242
G1 X114.15 Y116.392 E10.04666
G1 X96.216 Y116.391 E10.88174
G1 X95.438 Y116.381 E10.91797
G1 X94.725 Y116.332 E10.95125
G1 X94.021 Y116.204 E10.98457
G1 X93.336 Y115.997 E11.01789
G1 X92.678 Y115.716 E11.05121
G1 X92.056 Y115.363 E11.08451
G1 X91.478 Y114.943 E11.11778
G1 X90.949 Y114.461 E11.1511
G1 X90.478 Y113.923 E11.1844
G1 X90.07 Y113.335 E11.21772
G1 X89.73 Y112.706 E11.25102
G1 X89.462 Y112.043 E11.28431
G1 X89.27 Y111.354 E11.31762
G1 X89.156 Y110.648 E11.35092
G1 X89.114 Y109.84 E11.38859
G1 X89.111 Y100.695 E11.81442
G1 X89.122 Y99.924 E11.85033
G1 X89.172 Y99.211 E11.88361
G1 X89.302 Y98.507 E11.91695
G1 X89.51 Y97.823 E11.95024
G1 X89.792 Y97.166 E11.98353
G1 X90.146 Y96.544 E12.01685
G1 X90.568 Y95.966 E12.05018
G1 X91.051 Y95.439 E12.08346
G1 X91.59 Y94.969 E12.11676
G1 X92.178 Y94.562 E12.15006
G1 X92.808 Y94.223 E12.18337
G1 X93.471 Y93.956 E12.21666
G1 X94.161 Y93.765 E12.24999
G1 X94.867 Y93.653 E12.28328
G1 X95.663 Y93.613 E12.32039
G1 X113.781 Y93.609 E13.16404
G1 X114.575 Y93.62 E13.20102
M204 S3000
M205 X10 Y10
G1 F2400 E7.20102
G1 F600 Z0.275
G0 F3000 X110.776 Y104.753 Z0.275
M204 S1800
M205 X8 Y8
;TYPE:SUPPORT
G1 F600 Z0.2
G1 F2400 E13.20102
G1 F1500 X110.775 Y105.246 E13.22397
G1 X99.226 Y105.246 E13.76174
G1 X99.226 Y104.754 E13.78465
G1 X110.776 Y104.753 E14.32247
M204 S3000
M205 X10 Y10
G1 F2400 E8.32247
;MESH:Foot for sink thing.stl
G0 F3000 X110.776 Y102.645
G0 X97.699 Y102.105
M204 S1800
M205 X8 Y8
;TYPE:WALL-INNER
G1 F2400 E14.32247
G1 F1500 X97.347 Y102.208 E14.33955
G1 X97.127 Y102.272 E14.35021
G1 X96.911 Y102.408 E14.3621
G1 X96.911 Y102.272
G1 X96.911 Y102.043 E14.37015
G1 X96.911 Y101.41 E14.39962
G1 X112.81 Y101.409 E15.13995
G1 X113.09 Y101.409 E15.15298
G1 X113.09 Y101.689 E15.16142
G1 X113.09 Y102.056 E15.17851
G1 X113.09 Y102.261 E15.18806
G1 X113.09 Y102.411 E15.19504
G1 X112.839 Y102.261 E15.20159
G1 X112.643 Y102.205 E15.20897
G1 X112.298 Y102.105 E15.2257
G1 X97.699 Y102.105 E15.90549
M204 S3000
M205 X10 Y10
G0 F3000 X96.756 Y104.373
G0 X96.699 Y105.332
G0 X97.702 Y107.895
M204 S1800
M205 X8 Y8
G1 F1500 X112.167 Y107.898 E16.57904
G1 X112.564 Y107.831 E16.59779
G1 X112.61 Y107.824 E16.59996
G1 X113.089 Y107.607 E16.62444
G1 X113.089 Y107.824 E16.62594
G1 X113.089 Y107.871 E16.62801
G1 X113.089 Y108.312 E16.64854
G1 X113.089 Y108.592 E16.66158
G1 X112.809 Y108.592 E16.67002
G1 X96.911 Y108.591 E17.4103
G1 X96.911 Y107.945 E17.44038
G1 X96.911 Y107.739 E17.44997
G1 X96.911 Y107.589 E17.45696
G1 X97.161 Y107.739 E17.46347
G1 X97.358 Y107.796 E17.4709
G1 X97.702 Y107.895 E17.48757
M204 S3000
M205 X10 Y10
G0 F3000 X97.781 Y107.335
M204 S1800
M205 X8 Y8
G1 F1500 X112.121 Y107.338 E18.1553
G1 X112.445 Y107.284 E18.17059
G1 X112.832 Y107.108 E18.19039
G1 X113.102 Y106.887 E18.20664
G1 X113.157 Y106.843 E18.20992
G1 X113.415 Y106.525 E18.22899
G1 X113.611 Y106.16 E18.24828
G1 X113.649 Y106.047 E18.25383
G1 X113.649 Y106.16
G1 X113.649 Y106.525 E18.25751
G1 X113.649 Y106.843 E18.2667
G1 X113.649 Y106.914 E18.26983
G1 X113.649 Y108.872 E18.361
G1 X113.649 Y109.152 E18.37404
G1 X113.369 Y109.152 E18.38248
G1 X96.351 Y109.151 E19.17491
G1 X96.351 Y106.938 E19.27796
G1 X96.351 Y106.696 E19.28923
G1 X96.351 Y106.358 E19.30496
G1 X96.351 Y106.053 E19.31917
G1 X96.485 Y106.358 E19.32188
G1 X96.71 Y106.696 E19.33151
G1 X96.881 Y106.867 E19.3409
G1 X97.01 Y106.996 E19.34939
G1 X97.386 Y107.221 E19.36979
G1 X97.781 Y107.335 E19.38894
M204 S3000
M205 X10 Y10
G0 F3000 X97.767 Y107.434
G0 X96.943 Y106.107
G0 X96.699 Y105.332
G0 X96.756 Y104.373
G0 X97.765 Y102.567
G0 X97.779 Y102.665
M204 S1800
M205 X8 Y8
G1 F1500 X97.359 Y102.788 E19.40932
G1 X96.998 Y103.015 E19.42917
G1 X96.88 Y103.134 E19.43698
G1 X96.704 Y103.312 E19.44863
G1 X96.47 Y103.668 E19.46847
G1 X96.351 Y103.976 E19.48384
G1 X96.351 Y103.668 E19.48514
G1 X96.351 Y103.312 E19.49163
G1 X96.351 Y103.061 E19.50132
G1 X96.351 Y100.85 E19.60428
G1 X113.37 Y100.849 E20.39675
G1 X113.65 Y100.849 E20.40979
G1 X113.65 Y101.129 E20.41823
G1 X113.65 Y103.063 E20.50828
G1 X113.65 Y103.304 E20.51951
G1 X113.65 Y103.642 E20.53524
G1 X113.65 Y103.948 E20.54949
G1 X113.515 Y103.642 E20.55223
G1 X113.29 Y103.304 E20.56189
G1 X113.12 Y103.134 E20.57123
G1 X112.99 Y103.004 E20.57979
G1 X112.614 Y102.779 E20.6002
G1 X112.219 Y102.665 E20.61934
G1 X97.779 Y102.665 E21.29173
M204 S3000
M205 X10 Y10
G0 F3000 X97.86 Y103.225
M204 S1800
M205 X8 Y8
;TYPE:WALL-OUTER
G1 F1500 X97.591 Y103.304 E21.30478
G1 X97.35 Y103.455 E21.31803
G1 X97.141 Y103.666 E21.33185
G1 X96.971 Y103.925 E21.34628
G1 X96.794 Y104.383 E21.36914
G1 X96.727 Y104.791 E21.3884
G1 X96.738 Y105.328 E21.41341
G1 X96.842 Y105.778 E21.43491
G1 X96.978 Y106.088 E21.45068
G1 X97.145 Y106.339 E21.46471
G1 X97.357 Y106.551 E21.47867
G1 X97.611 Y106.703 E21.49246
G1 X97.86 Y106.775 E21.50453
G1 X112.075 Y106.778 E22.16644
G1 X112.28 Y106.744 E22.17611
G1 X112.534 Y106.628 E22.18912
G1 X112.759 Y106.445 E22.20262
G1 X112.947 Y106.213 E22.21652
G1 X113.096 Y105.936 E22.23117
G1 X113.206 Y105.612 E22.2471
G1 X113.273 Y105.209 E22.26613
G1 X113.262 Y104.672 E22.29114
G1 X113.158 Y104.222 E22.31264
G1 X113.022 Y103.912 E22.32841
G1 X112.855 Y103.661 E22.34244
G1 X112.643 Y103.449 E22.3564
G1 X112.389 Y103.297 E22.37019
G1 X112.14 Y103.225 E22.38226
G1 X97.86 Y103.225 E23.04719
M204 S3000
M205 X10 Y10
G0 F3000 X97.668 Y103.281
G0 X97.483 Y102.647
G0 X96.756 Y104.373
G0 X96.421 Y109.081
G0 X95.791 Y109.711
M204 S1800
M205 X8 Y8
G1 F1500 X95.791 Y100.29 E23.48588
G1 X113.93 Y100.289 E24.3305
G1 X114.21 Y100.289 E24.34354
G1 X114.21 Y100.569 E24.35198
G1 X114.209 Y109.712 E24.77772
G1 X95.791 Y109.711 E25.63534
M204 S3000
M205 X10 Y10
G0 F3000 X95.791 Y109.511
G0 X96.421 Y109.081
G0 X97.859 Y108.154
M204 S1800
M205 X8 Y8
;TYPE:SKIN
G1 F1500 X98.034 Y108.33 E25.64689
M204 S3000
M205 X10 Y10
G0 F3000 X98.651 Y108.154
M204 S1800
M205 X8 Y8
G1 F1500 X98.826 Y108.33 E25.65845
M204 S3000
M205 X10 Y10
G0 F3000 X99.443 Y108.154
M204 S1800
M205 X8 Y8
G1 F1500 X99.618 Y108.33 E25.67001
M204 S3000
M205 X10 Y10
G0 F3000 X100.235 Y108.155
M204 S1800
M205 X8 Y8
G1 F1500 X100.41 Y108.33 E25.68153
M204 S3000
M205 X10 Y10
G0 F3000 X101.027 Y108.155
M204 S1800
M205 X8 Y8
G1 F1500 X101.202 Y108.33 E25.69306
M204 S3000
M205 X10 Y10
G0 F3000 X101.819 Y108.155
M204 S1800
M205 X8 Y8
G1 F1500 X101.994 Y108.33 E25.70458
M204 S3000
M205 X10 Y10
G0 F3000 X102.612 Y108.156
M204 S1800
M205 X8 Y8
G1 F1500 X102.787 Y108.33 E25.71607
M204 S3000
M205 X10 Y10
G0 F3000 X103.404 Y108.156
M204 S1800
M205 X8 Y8
G1 F1500 X103.579 Y108.33 E25.72756
M204 S3000
M205 X10 Y10
G0 F3000 X104.196 Y108.156
M204 S1800
M205 X8 Y8
G1 F1500 X104.371 Y108.33 E25.73905
M204 S3000
M205 X10 Y10
G0 F3000 X104.989 Y108.156
M204 S1800
M205 X8 Y8
G1 F1500 X105.163 Y108.33 E25.75051
M204 S3000
M205 X10 Y10
G0 F3000 X105.781 Y108.156
M204 S1800
M205 X8 Y8
G1 F1500 X105.955 Y108.33 E25.76197
M204 S3000
M205 X10 Y10
G0 F3000 X106.573 Y108.156
M204 S1800
M205 X8 Y8
G1 F1500 X106.746 Y108.33 E25.77339
M204 S3000
M205 X10 Y10
G0 F3000 X107.365 Y108.157
M204 S1800
M205 X8 Y8
G1 F1500 X107.538 Y108.33 E25.78479
M204 S3000
M205 X10 Y10
G0 F3000 X108.157 Y108.157
M204 S1800
M205 X8 Y8
G1 F1500 X108.331 Y108.331 E25.79625
M204 S3000
M205 X10 Y10
G0 F3000 X108.949 Y108.157
M204 S1800
M205 X8 Y8
G1 F1500 X109.123 Y108.331 E25.8077
M204 S3000
M205 X10 Y10
G0 F3000 X109.741 Y108.157
M204 S1800
M205 X8 Y8
G1 F1500 X109.915 Y108.331 E25.81916
M204 S3000
M205 X10 Y10
G0 F3000 X110.534 Y108.158
M204 S1800
M205 X8 Y8
G1 F1500 X110.707 Y108.331 E25.83055
M204 S3000
M205 X10 Y10
G0 F3000 X111.326 Y108.158
M204 S1800
M205 X8 Y8
G1 F1500 X111.499 Y108.331 E25.84195
M204 S3000
M205 X10 Y10
G0 F3000 X112.118 Y108.158
M204 S1800
M205 X8 Y8
G1 F1500 X112.291 Y108.331 E25.85334
M204 S3000
M205 X10 Y10
G0 F3000 X113.244 Y105.621
G0 X113.301 Y104.668
G0 X112.14 Y101.844
M204 S1800
M205 X8 Y8
G1 F1500 X111.964 Y101.669 E25.8649
M204 S3000
M205 X10 Y10
G0 F3000 X111.348 Y101.844
M204 S1800
M205 X8 Y8
G1 F1500 X111.172 Y101.669 E25.87645
M204 S3000
M205 X10 Y10
G0 F3000 X110.556 Y101.844
M204 S1800
M205 X8 Y8
G1 F1500 X110.38 Y101.669 E25.88801
M204 S3000
M205 X10 Y10
G0 F3000 X109.764 Y101.844
M204 S1800
M205 X8 Y8
G1 F1500 X109.588 Y101.669 E25.89957
M204 S3000
M205 X10 Y10
G0 F3000 X108.972 Y101.844
M204 S1800
M205 X8 Y8
G1 F1500 X108.796 Y101.669 E25.91112
M204 S3000
M205 X10 Y10
G0 F3000 X108.18 Y101.844
M204 S1800
M205 X8 Y8
G1 F1500 X108.004 Y101.669 E25.92268
M204 S3000
M205 X10 Y10
G0 F3000 X107.388 Y101.844
M204 S1800
M205 X8 Y8
G1 F1500 X107.212 Y101.669 E25.93424
M204 S3000
M205 X10 Y10
G0 F3000 X106.596 Y101.844
M204 S1800
M205 X8 Y8
G1 F1500 X106.42 Y101.669 E25.94579
M204 S3000
M205 X10 Y10
G0 F3000 X105.804 Y101.844
M204 S1800
M205 X8 Y8
G1 F1500 X105.629 Y101.669 E25.95732
M204 S3000
M205 X10 Y10
G0 F3000 X105.012 Y101.844
M204 S1800
M205 X8 Y8
G1 F1500 X104.837 Y101.669 E25.96884
M204 S3000
M205 X10 Y10
G0 F3000 X104.219 Y101.843
M204 S1800
M205 X8 Y8
G1 F1500 X104.045 Y101.669 E25.9803
M204 S3000
M205 X10 Y10
G0 F3000 X103.427 Y101.843
M204 S1800
M205 X8 Y8
G1 F1500 X103.253 Y101.669 E25.99176
M204 S3000
M205 X10 Y10
G0 F3000 X102.635 Y101.843
M204 S1800
M205 X8 Y8
G1 F1500 X102.461 Y101.669 E26.00322
M204 S3000
M205 X10 Y10
G0 F3000 X101.843 Y101.843
M204 S1800
M205 X8 Y8
G1 F1500 X101.669 Y101.669 E26.01468
M204 S3000
M205 X10 Y10
G0 F3000 X101.051 Y101.843
M204 S1800
M205 X8 Y8
G1 F1500 X100.877 Y101.669 E26.02613
M204 S3000
M205 X10 Y10
G0 F3000 X100.259 Y101.843
M204 S1800
M205 X8 Y8
G1 F1500 X100.085 Y101.669 E26.03759
M204 S3000
M205 X10 Y10
G0 F3000 X99.468 Y101.843
M204 S1800
M205 X8 Y8
G1 F1500 X99.293 Y101.669 E26.04908
M204 S3000
M205 X10 Y10
G0 F3000 X98.676 Y101.843
M204 S1800
M205 X8 Y8
G1 F1500 X98.501 Y101.669 E26.06057
M204 S3000
M205 X10 Y10
G0 F3000 X97.884 Y101.843
M204 S1800
M205 X8 Y8
G1 F1500 X97.709 Y101.669 E26.07207
M204 S3000
M205 X10 Y10
G1 F2400 E20.07207
;MESH:NONMESH
G0 F600 X97.709 Y101.669 Z0.4
G0 F3000 X99.145 Y102.645
G0 X99.145 Y104.674
;TIME_ELAPSED:26.222703
;LAYER:1
M140 S60
M204 S1800
M205 X8 Y8
;TYPE:SUPPORT
G1 F2400 E26.07207
G1 F1650 X110.856 Y104.673 E26.46158
G1 X110.855 Y105.326 E26.48329
G1 X99.147 Y105.326 E26.8727
G1 X99.145 Y104.674 E26.89439
M204 S3000
M205 X10 Y10
G0 F4500 X101.542 Y104.813
M204 S1800
M205 X8 Y8
G1 F1650 X102.185 Y105.185 E26.9191
M204 S3000
M205 X10 Y10
G0 F4500 X104 Y105.186
M204 S1800
M205 X8 Y8
G1 F1650 X104 Y104.813 E26.9315
M204 S3000
M205 X10 Y10
G0 F4500 X105.813 Y105.185
M204 S1800
M205 X8 Y8
G1 F1650 X106.459 Y104.812 E26.95631
M204 S3000
M205 X10 Y10
G1 F2400 E20.95631
;MESH:Foot for sink thing.stl
G0 F4500 X106.457 Y107.107
G0 X112.287 Y107.488
M204 S1800
M205 X8 Y8
;TYPE:WALL-INNER
G1 F2400 E26.95631
